X:695
T: Recovery Reel
C: BB
R: reel
Q: 1/8=350
M: 4/4
L: 1/8
K: D
D|"D"A,DFA dcBA|"Bm"FDED AB (3BAB|"D"A,DFA dcBd|"F#m"fafe "G"d3 D|
"D"A,DFA dcBA|"Bm"FDED AB (3BAB|"D"Addc defd|"A7"AGEC "D"D3 :|
A|"G"BddB "D"ABde|"Bm"fBde "Bm7"faba|"D"fa (3a^ga "Bm"fedB|"A"ABce "D"d4|
"Bm"fd (3dcd "D"ad (3dcd|"A"abag "Bm"fedB|"D"Addc defg|"A7"(3efg ce "D"d3 :|
%%%%%%%%%%%%%%%%%%%%%%%%%%%%%%%%%%%%%%%%%%%
